X:1
T:In Chapel Park
T:In Chapel Park
T:Collected by Jekyll Sung by Thomas Colcombe
C:Collected by Jekyll
C:Sung by Thomas Colcombe
L:1/8
Q:1/4=100
M:5/4
K:G
V:1 treble 
V:1
"^(Editorial suggestion" D2 | G2 G2 G2 B2 G2 | E2 E2 E4 G2 | A2 A2 c2 A2 F2 | D2 D2 D4 B2 | %5
 d2 d2 B2 c2 d2 | e2 c2 A4 G2 | A2 A2 D2 E2 F2 | G2 G2 G4 |] %9

